assets/Pager/Flat/pager_flat.svg

<svg xmlns="http://www.w3.org/2000/svg" width="32" height="32" fill="none"><path fill="#636363" d="M27 30H5c-1.66 0-3-1.34-3-3V12c0-1.66 1.34-3 3-3h22c1.66 0 3 1.34 3 3v15c0 1.66-1.34 3-3 3Z"/><path fill="#00D26A" d="M5 22.5c-.55 0-1-.45-1-1V12c0-.55.45-1 1-1h22c.55 0 1 .45 1 1v9.5c0 .55-.45 1-1 1H5Z"/><path fill="#9B9B9B" d="M14.97 28h4.99c.83 0 1.5-.67 1.5-1.5s-.67-1.5-1.5-1.5h-4.99c-.83 0-1.5.67-1.5 1.5s.67 1.5 1.5 1.5Zm-9.48 0h4.99c.83 0 1.5-.67 1.51-1.49 0-.83-.67-1.5-1.5-1.5H5.5c-.83 0-1.5.67-1.5 1.5 0 .82.67 1.49 1.49 1.49Z"/><path fill="#CA0B4A" d="M26.49 28h-2.04c-.83 0-1.5-.67-1.5-1.5s.67-1.5 1.5-1.5h2.04c.83 0 1.5.67 1.5 1.5s-.67 1.5-1.5 1.5Z"/><path fill="#008463" d="M8.51 15.25c0 .55.45 1 1 1 .56 0 1-.45 1-1v-1c0-.55-.45-1-1-1s-1 .45-1 1v1Zm0 3.99c0 .55.45 1 1 1 .56 0 1-.44 1-1v-1c0-.55-.45-1-1-1s-1 .45-1 1v1Zm5-2.99c-.55 0-1-.45-1-1v-1c0-.55.45-1 1-1s1 .45 1 1v1c-.01.55-.45 1-1 1Zm-1 2.99c0 .55.45 1 1 1s.99-.44 1-1v-1c0-.55-.45-1-1-1s-1 .45-1 1v1Zm5.98-2.99c-.55 0-1-.45-1-1v-1c0-.55.45-1 1-1s1 .45 1 1v1c0 .55-.44 1-1 1Zm-1 2.99c0 .55.45 1 1 1 .56 0 1-.44 1-1v-1c0-.55-.45-1-1-1s-1 .45-1 1v1Zm5-2.99c-.55 0-1-.45-1-1v-1c0-.55.45-1 1-1s1 .45 1 1v1c-.01.55-.45 1-1 1Zm-1 2.99c0 .55.45 1 1 1s.99-.44 1-1v-1c0-.55-.45-1-1-1s-1 .45-1 1v1Z"/></svg>

<svg width="32" height="32" viewBox="0 0 32 32" fill="none" xmlns="http://www.w3.org/2000/svg">
<path d="M27 30H5C3.34 30 2 28.66 2 27V12C2 10.34 3.34 9 5 9H27C28.66 9 30 10.34 30 12V27C30 28.66 28.66 30 27 30Z" fill="#636363"/>
<path d="M5 22.5C4.45 22.5 4 22.05 4 21.5V12C4 11.45 4.45 11 5 11H27C27.55 11 28 11.45 28 12V21.5C28 22.05 27.55 22.5 27 22.5H5Z" fill="#00D26A"/>
<path d="M14.97 28H19.96C20.79 28 21.46 27.33 21.46 26.5C21.46 25.67 20.79 25 19.96 25H14.97C14.14 25 13.47 25.67 13.47 26.5C13.47 27.33 14.14 28 14.97 28ZM5.49 28H10.48C11.31 28 11.98 27.33 11.99 26.51C11.99 25.68 11.32 25.01 10.49 25.01H5.5C4.67 25.01 4 25.68 4 26.51C4 27.33 4.67 28 5.49 28Z" fill="#9B9B9B"/>
<path d="M26.49 28H24.45C23.62 28 22.95 27.33 22.95 26.5C22.95 25.67 23.62 25 24.45 25H26.49C27.32 25 27.99 25.67 27.99 26.5C27.99 27.33 27.32 28 26.49 28Z" fill="#CA0B4A"/>
<path d="M8.51001 15.25C8.51001 15.8 8.96001 16.25 9.51001 16.25C10.07 16.25 10.51 15.8 10.51 15.25V14.25C10.51 13.7 10.06 13.25 9.51001 13.25C8.96001 13.25 8.51001 13.7 8.51001 14.25V15.25ZM8.51001 19.24C8.51001 19.79 8.96001 20.24 9.51001 20.24C10.07 20.24 10.51 19.8 10.51 19.24V18.24C10.51 17.69 10.06 17.24 9.51001 17.24C8.96001 17.24 8.51001 17.69 8.51001 18.24V19.24ZM13.51 16.25C12.96 16.25 12.51 15.8 12.51 15.25V14.25C12.51 13.7 12.96 13.25 13.51 13.25C14.06 13.25 14.51 13.7 14.51 14.25V15.25C14.5 15.8 14.06 16.25 13.51 16.25ZM12.51 19.24C12.51 19.79 12.96 20.24 13.51 20.24C14.06 20.24 14.5 19.8 14.51 19.24V18.24C14.51 17.69 14.06 17.24 13.51 17.24C12.96 17.24 12.51 17.69 12.51 18.24V19.24ZM18.49 16.25C17.94 16.25 17.49 15.8 17.49 15.25V14.25C17.49 13.7 17.94 13.25 18.49 13.25C19.04 13.25 19.49 13.7 19.49 14.25V15.25C19.49 15.8 19.05 16.25 18.49 16.25ZM17.49 19.24C17.49 19.79 17.94 20.24 18.49 20.24C19.05 20.24 19.49 19.8 19.49 19.24V18.24C19.49 17.69 19.04 17.24 18.49 17.24C17.94 17.24 17.49 17.69 17.49 18.24V19.24ZM22.49 16.25C21.94 16.25 21.49 15.8 21.49 15.25V14.25C21.49 13.7 21.94 13.25 22.49 13.25C23.04 13.25 23.49 13.7 23.49 14.25V15.25C23.48 15.8 23.04 16.25 22.49 16.25ZM21.49 19.24C21.49 19.79 21.94 20.24 22.49 20.24C23.04 20.24 23.48 19.8 23.49 19.24V18.24C23.49 17.69 23.04 17.24 22.49 17.24C21.94 17.24 21.49 17.69 21.49 18.24V19.24Z" fill="#008463"/>
</svg>
